style-guide/assets/wds-icons-text-small.svg

<svg xmlns="http://www.w3.org/2000/svg" xmlns:xlink="http://www.w3.org/1999/xlink" width="18" height="18" viewBox="0 0 18 18">
  <defs>
    <path id="text-a" d="M11,17 L7,17 C6.448,17 6,16.553 6,16 C6,15.447 6.448,15 7,15 L8,15 L8,4 L5,4 C5,4.553 4.552,5 4,5 C3.448,5 3,4.553 3,4 L3,3 C3,2.447 3.448,2 4,2 L14,2 C14.552,2 15,2.447 15,3 L15,4 C15,4.553 14.552,5 14,5 C13.448,5 13,4.553 13,4 L10,4 L10,15 L11,15 C11.552,15 12,15.447 12,16 C12,16.553 11.552,17 11,17"/>
  </defs>
  <use fill-rule="evenodd" xlink:href="#text-a"/>
</svg>

<svg xmlns="http://www.w3.org/2000/svg" xmlns:xlink="http://www.w3.org/1999/xlink" viewBox="0 0 18 18">
  <defs>
    <path id="text-a" d="M11 17H7a1 1 0 1 1 0-2h1V4H5a1 1 0 1 1-2 0V3a1 1 0 0 1 1-1h10a1 1 0 0 1 1 1v1a1 1 0 1 1-2 0h-3v11h1a1 1 0 1 1 0 2"/>
  </defs>
  <use fill-rule="evenodd" xlink:href="#text-a"/>
</svg>
